X: 185
U:~=!turn!
M:C|
L:1/8
K:G
c |: BG G/G/G (BG)dG | BG G/G/G G2 {/f}(gd) | BG G/G/G (BG)d_B | (A/_B/c ) (=Fc) AFcF ::
{ef}g2 (dB) {/F}GB{/c}dB | {ef}g2 (dB) gbaf | {ef}g2 (dB) {/F}GBd_B | A=fcf AFcA :| (B/c/d) (gd) (B/c/d) (gd) |
(B/c/d) (gd) BGG_B | (A/_B/c) (=fc) (A/B/c) (fc) | (A/_B/c) (=fc) AFFc | (B/c/d) (g>d) (B/c/d) (gd) | (B/c/d) (gd) BGGe |
=fg(ag) Tfgfd | cA=fc AFF || c | (B/c/d) (Gd) BdGd | BdGd BGG_B | (A/B/c) =Fc AcFc |


